X:1
T:Morning Star
C:Hornpipe
Q:1/4=100
M:4/4
L:1/8   
K:G
P:A
A2 | "G" BcBG "C" E2 FG | "D" ABAF D2 GA | "G" BcBG "C" E2 AF | "G" D2 G2 G2 :|
P:B
A2 | "G" BABc d2 d2 | "C" egfe "D" dcBA | "G" GABcd2d2 | "C" egfe "D"  d3 c|
"G" B2 Bc d2 d2 | "C" egfe "G" dB G2 | "D" ABcA FGAF | "G" D2 G2 G4 |]


%%textfont Times-Italic 12
%%begintext justify

via PDF Alison's email 2015-10-24
%%endtext
